X: 7825
T: Comet, The
R: reel
M: 4/4
K: Bminor
||de|"Bm"f2 bf "G"ge e2|"D"fedf "A7"ecde|"Bm"f2 bf "G"ge e2|"D"fedf "A7"e2 de|
"Bm"f2 bf "G"ge e2|"D"fedf "A7"ecde|"Bm"f2 bf "G"ge e2|"Bm"fedc B2||
Bc|"D"dDFA dfaf|"A7"edcd ecAG|"D"FAdF "G"GBdB|"A7"Acef g2fe|
"D"dDFA dfaf|"A7"edcd ecAG|"D"FAdF "G"GBdB|"Em"edcd "Bm"B2||

